Production/EA4S_WordDrawings/SVG/singles_SVG/garlic.svg

<?xml version="1.0" encoding="UTF-8" standalone="no"?><!DOCTYPE svg PUBLIC "-//W3C//DTD SVG 1.1//EN" "http://www.w3.org/Graphics/SVG/1.1/DTD/svg11.dtd"><svg width="100%" height="100%" viewBox="0 0 441 434" version="1.1" xmlns="http://www.w3.org/2000/svg" xmlns:xlink="http://www.w3.org/1999/xlink" xml:space="preserve" style="fill-rule:evenodd;clip-rule:evenodd;stroke-linejoin:round;stroke-miterlimit:1.41421;"><g id="garlic"><path d="M194.249,34.425c4.062,-1.137 8.137,-2.119 12.355,-2.423c1.81,-0.13 3.857,-0.171 5.527,0.634c-0.795,-0.383 0.104,0.591 0.563,1.141c0.313,0.344 0.7,0.556 1.158,0.636c-0.979,-0.147 -0.145,0.091 0.239,0.265c0.795,0.36 1.631,0.063 2.27,-0.472c0.428,-0.357 1.708,-2.459 1.045,-1.407c0.726,-1.15 1.122,-2.678 0.111,-3.83c-1.388,-1.582 -4.765,-1.981 -6.696,-2.036c-5.448,-0.154 -12.695,0.771 -17.317,3.906c-1.676,1.135 -2.062,4.371 0.745,3.586Z" style="fill:#010101;fill-rule:nonzero;"/><path d="M193.958,33.147c-4.511,29.906 3.708,59.875 6.52,89.539c1.365,14.397 1.033,28.442 -2.224,42.571c-2.909,12.621 -7.982,24.572 -13.449,36.264c-5.501,11.767 -11.361,23.349 -16.425,35.314c-5.058,11.948 -8,24.709 -9.891,37.51c-3.83,25.949 -2.575,52.954 6.84,77.597c6.596,17.262 19.288,31.903 33.092,43.85c13.786,11.931 30.319,23.063 47.663,29.021c4.158,1.429 9.113,-4.923 6.47,-8.478c-1.688,-2.268 -4.058,-3.508 -6.333,-5.106c-3.436,-2.412 -9.288,3.692 -6.53,7.007c1.22,1.467 2.908,2.865 3.849,4.534c2.711,-2.379 5.422,-4.758 8.133,-7.136c-11.523,-5.6 -22.754,-10.887 -33.38,-18.162c-10.872,-7.444 -20.735,-16.378 -29.184,-26.487c-17.082,-20.438 -23.09,-46.083 -23.471,-72.243c-0.199,-13.719 1.391,-27.427 4.334,-40.813c2.83,-12.876 7.931,-24.981 13.229,-37.007c10.218,-23.186 21.542,-46.142 24.072,-71.707c1.896,-19.172 -1.604,-38.572 -4.791,-57.422c-3.333,-19.717 -5.936,-39.171 -5.738,-59.208c0.017,-1.711 -2.605,-0.645 -2.786,0.562Z" style="fill:#010101;fill-rule:nonzero;"/><path d="M217.621,38.264c-0.449,15.609 2.462,31.072 5.504,46.34c2.898,14.561 6.342,29.173 10.724,43.362c7.463,24.167 23.479,44.309 39.579,63.306c17.359,20.485 33.98,40.706 46.046,64.888c12.961,25.979 20.499,54.563 19.569,83.698c-0.771,24.158 -11.532,47.141 -29.854,63.127c-6.822,5.953 -14.491,10.992 -22.521,15.154c-6.035,3.128 -15.398,7.62 -21.808,3.243c-4.626,-3.16 -12.282,5.692 -7.049,9.305c7.346,5.071 17.468,2.308 25.016,-0.788c9.865,-4.046 18.858,-10.045 27.259,-16.549c18.739,-14.507 33.103,-37.011 37.256,-60.391c4.896,-27.569 -1.006,-57.128 -10.818,-82.943c-9.641,-25.356 -24.42,-48.271 -41.825,-68.949c-17.983,-21.362 -37.87,-41.542 -49.953,-67.069c-6.89,-14.556 -10.589,-30.959 -14.509,-46.508c-4.167,-16.53 -6.876,-33.385 -11.218,-49.844c-0.219,-0.826 -1.381,0.063 -1.398,0.618Z" style="fill:#010101;fill-rule:nonzero;"/><path d="M184.08,59.137c-2.282,14.301 -2.39,28.689 -5.387,42.912c-2.983,14.165 -8.61,27.368 -15.843,39.858c-13.457,23.243 -32.022,42.875 -49.039,63.47c-16.264,19.683 -30.159,40.775 -39.255,64.734c-8.62,22.706 -13.744,47.932 -9.465,72.142c2.38,13.463 8.145,25.925 17.257,36.151c9.689,10.877 22.625,18.89 35.183,26.004c13.485,7.643 27.404,15.44 42.521,19.273c6.824,1.729 14.418,2.284 21.366,0.99c2.896,-0.539 5.729,-1.323 8.559,-2.139c1.408,-0.405 2.815,-0.813 4.211,-1.259c2.183,-0.698 1.704,0.147 -0.249,-0.754c4.931,2.276 12.255,-6.454 6.798,-8.975c-3.122,-1.441 -7.056,0.009 -10.146,0.905c-5.704,1.654 -10.939,2.834 -16.938,2.473c-14.318,-0.863 -27.366,-8.266 -39.753,-14.839c-21.828,-11.587 -44.975,-24.783 -54.667,-48.794c-9.246,-22.904 -5.093,-49.501 1.981,-72.376c7.564,-24.463 20.91,-46.031 36.747,-65.956c17.761,-22.344 38.022,-43.085 52.018,-68.176c7.296,-13.08 12.575,-26.911 15.276,-41.657c2.618,-14.289 3.812,-30.159 1.364,-44.505c-0.262,-1.524 -2.355,-0.634 -2.539,0.518Z" style="fill:#010101;fill-rule:nonzero;"/><path d="M157.669,138.275c-14.897,12.739 -29.943,24.551 -46.357,35.291c-16.038,10.494 -32.602,20.181 -48.222,31.306c-15.323,10.914 -29.679,23.497 -40.679,38.863c-11.979,16.736 -19.021,36.323 -21.601,56.674c-3.945,31.113 7.69,59.842 31.121,80.526c20.795,18.358 50.291,30.429 78.318,27.169c5.454,-0.635 9.581,-10.703 2.172,-10.139c-40.71,3.105 -83.173,-23.216 -97.446,-61.676c-7.601,-20.479 -4.779,-44.008 2.608,-64.164c6.463,-17.635 17.786,-32.702 31.483,-45.379c16.998,-15.733 36.917,-27.839 56.062,-40.703c19.397,-13.035 40.643,-27.03 54.122,-46.516c0.878,-1.265 -0.506,-2.171 -1.581,-1.252Z" style="fill:#010101;fill-rule:nonzero;"/><path d="M171.692,35.972c2.152,5.511 5.208,10.605 7.3,16.164c2.158,5.731 1.516,12.598 4.601,17.893c0.882,1.515 2.722,0.497 3.381,-0.688c6.396,-11.522 -2.697,-28.949 -12.495,-35.813c-1.276,-0.894 -3.298,1.135 -2.787,2.444Z" style="fill:#010101;fill-rule:nonzero;"/><path d="M171.167,36.581c3.381,1.211 6.537,1.896 9.63,3.853c3.093,1.955 5.026,5.458 8.637,6.52c1.17,0.344 2.734,-0.94 2.879,-2.076c1.205,-9.396 -12.974,-13.285 -20.063,-11.445c-0.964,0.247 -2.713,2.564 -1.083,3.148Z" style="fill:#010101;fill-rule:nonzero;"/><path d="M195.391,288.338c-0.258,6.64 -0.968,13.057 -0.721,19.728c0.258,6.944 1.344,13.948 2.521,20.787c2.248,13.07 5.763,25.774 10.414,38.185c9.59,25.59 26.818,46.925 48.323,63.496c3.823,2.947 11.409,-4.69 7.718,-8.278c-1.74,-1.691 -3.027,-2.72 -5.391,-3.291c-3.521,-0.853 -6.736,3.21 -6.009,6.401c0.448,1.968 1.388,3.019 2.779,4.451c2.572,-2.76 5.146,-5.52 7.718,-8.279c-21.582,-14.229 -36.609,-35.775 -47.677,-58.754c-5.546,-11.515 -9.419,-24.011 -12.127,-36.475c-1.425,-6.558 -2.409,-13.207 -3.202,-19.868c-0.739,-6.21 -2.164,-12.466 -2.457,-18.708c-0.057,-1.253 -1.853,-0.325 -1.889,0.605Z" style="fill:#010101;fill-rule:nonzero;"/><path d="M126.327,297.358c-0.403,12.984 -0.435,25.644 2.727,38.328c3.175,12.742 8.645,24.84 15.648,35.919c6.082,9.62 14.095,17.857 22.721,25.206c8.793,7.491 18.499,14.928 28.472,20.768c2.294,-3.028 4.589,-6.059 6.884,-9.086c-1.575,-0.571 -3.105,-0.758 -4.749,-1.051c-2.867,-0.512 -6.313,2.709 -5.301,5.649c0.647,1.88 1.542,3.317 3.166,4.485c4.464,3.213 11.731,-5.287 6.884,-9.086c-8.561,-6.709 -18.106,-12.218 -26.791,-18.811c-8.353,-6.341 -15.94,-13.691 -22.407,-21.95c-15.82,-20.206 -24.208,-45.485 -25.234,-71.02c-0.055,-1.325 -1.989,-0.352 -2.02,0.649Z" style="fill:#010101;fill-rule:nonzero;"/><path d="M118.294,365.629c6.907,17.122 19.982,29.322 35.36,39.117c6.941,4.42 14.497,7.977 22.071,11.158c4.907,2.063 18.291,7.771 17.898,-2.772c-0.041,-1.113 -0.671,-2.351 -1.725,-2.836c-5.079,-2.347 -10.619,-3.819 -15.803,-5.968c-6.806,-2.82 -13.41,-6.114 -19.878,-9.634c-13.348,-7.26 -27.861,-16.941 -35.841,-30.254c-0.662,-1.107 -2.522,0.1 -2.082,1.189Z" style="fill:#010101;fill-rule:nonzero;"/><path d="M281.574,323.47c4.598,12.578 3.316,28.284 1.959,41.343c-0.747,7.184 -1.736,14.487 -4.137,21.335c-0.901,2.569 -2.03,5.106 -3.602,7.336c-1.307,1.854 -3.482,2.536 -4.991,4.644c-2.039,2.848 -1.245,6.318 2.563,6.433c6.472,0.193 11.142,-9.112 13.041,-14.309c2.738,-7.487 3.595,-15.507 3.97,-23.421c0.679,-14.284 -0.993,-31.149 -7.278,-44.229c-0.417,-0.867 -1.812,0.08 -1.525,0.868Z" style="fill:#010101;fill-rule:nonzero;"/><path d="M313.159,349.413c1.201,11.947 -3.677,26.271 -13.542,33.617c-6.19,4.609 1.732,11.449 6.428,5.098c-2.334,0.774 -4.668,1.551 -7,2.326c2.142,1.647 5.736,-0.617 7,-2.326c8.866,-11.998 13.187,-24.942 9.414,-39.731c-0.325,-1.275 -2.401,0.001 -2.3,1.016Z" style="fill:#010101;fill-rule:nonzero;"/><path d="M42.554,335.48c2.29,8.329 4.398,15.931 8.947,23.394c4.195,6.886 9.234,12.912 15.375,18.146c13.074,11.148 28.416,19.596 42.946,28.652c1.535,-3.244 3.069,-6.487 4.604,-9.73c-2.332,0.458 -4.104,1.118 -6.122,2.397c-1.451,0.92 -3.463,3.498 -1.806,5.185c1.36,1.385 2.563,2.118 4.464,2.544c4.606,1.033 10.972,-6.507 5.885,-9.671c-27.245,-16.945 -58.205,-31.086 -72.731,-61.808c-0.43,-0.912 -1.783,0.087 -1.562,0.891Z" style="fill:#010101;fill-rule:nonzero;"/><path d="M370.494,298.514c1.646,6.051 0.051,13.129 -0.945,19.183c-0.984,5.986 -2.655,11.854 -4.342,17.674c-2.121,7.313 -4.57,14.31 -7.936,21.163c-3.489,7.105 -7.653,14.114 -13.229,19.797c-2.281,2.324 -4.727,4.313 -7.576,5.887c-2.995,1.652 -6.233,1.322 -9.371,2.363c-2.779,0.925 -7.396,6.666 -3.006,8.74c7.479,3.531 17.75,-3.33 23.214,-7.955c7.437,-6.295 12.808,-15.057 17.177,-23.645c4.131,-8.119 7.191,-17.083 8.824,-26.045c1.172,-6.442 2.558,-12.778 2.947,-19.334c0.418,-7.008 -1.89,-12.338 -4.073,-18.787c-0.341,-1.004 -1.923,0.084 -1.684,0.959Z" style="fill:#010101;fill-rule:nonzero;"/><path d="M300.611,152.992c22.052,11.229 45.557,19.406 67.209,31.422c20.813,11.548 40.378,28.279 52.151,49.229c9.941,17.69 12.814,37.73 8.104,57.454c-2.483,10.4 -7.182,20.394 -12.804,29.451c-2.992,4.82 -6.303,9.517 -9.729,14.036c-3.721,4.905 -8.732,9.428 -11.354,15.016c-1.104,2.354 1.216,3.431 3.127,2.512c5.539,-2.663 9.971,-8.062 14.005,-12.598c4.196,-4.72 8.045,-9.597 11.518,-14.878c6.473,-9.848 11.435,-20.451 14.634,-31.797c5.752,-20.399 3.401,-42.173 -6.024,-61.073c-11.048,-22.151 -31.102,-39.484 -52.342,-51.529c-23.989,-13.602 -51.282,-19.924 -77.044,-29.157c-1.02,-0.366 -2.655,1.298 -1.451,1.912Z" style="fill:#010101;fill-rule:nonzero;"/><path d="M247.885,121.411c2.354,0 3.956,-4.211 0.901,-4.211c-2.353,0.001 -3.954,4.211 -0.901,4.211Z" style="fill:#010101;fill-rule:nonzero;"/><path d="M199.482,26.861c1.232,-3.693 2.064,-7.463 3.452,-11.124c1.465,-3.862 3.72,-7.492 5.749,-11.078c-1.372,0.988 -2.744,1.979 -4.116,2.968c4.667,-0.025 9.33,-0.214 13.997,-0.238c4.898,-0.025 10.104,0.869 14.884,-0.304c1.229,-0.302 3.06,-2.507 1.778,-3.708c-3.032,-2.839 -7.582,-2.941 -11.567,-3.101c-5.852,-0.231 -11.7,0.124 -17.553,0.166c-1.809,0.014 -3.298,1.518 -4.116,2.969c-3.868,6.86 -9.328,16.69 -6.742,24.814c0.77,2.424 3.801,-0.065 4.234,-1.364Z" style="fill:#010101;fill-rule:nonzero;"/><path d="M242.957,8.603c-18.098,15.059 -18.754,40.357 -14.841,61.836c2.15,11.807 5.968,23.312 10.75,34.3c2.191,5.034 4.742,9.884 7.611,14.564c2.345,3.827 4.735,7.938 8.563,10.442c1.495,0.979 3.692,-1.263 3.159,-2.773c-1.35,-3.823 -3.831,-7.115 -5.778,-10.645c-2.326,-4.217 -4.404,-8.567 -6.418,-12.939c-4.713,-10.231 -8.293,-21 -10.784,-31.98c-4.55,-20.062 -6.188,-45.668 8.638,-62.093c0.605,-0.669 -0.313,-1.202 -0.9,-0.712Z" style="fill:#010101;fill-rule:nonzero;"/><path d="M265.596,135.684c6.59,7.812 15.337,14.017 23.517,20.062c8.079,5.971 16.282,11.771 24.317,17.804c15.594,11.705 30.47,24.041 43.021,39.049c14.222,17.002 24.068,36.905 30.743,57.957c3.895,12.285 7.398,25.225 7.646,38.172c0.23,12.07 -2.974,24.016 -8.075,34.874c-7.302,15.54 -19.563,27.195 -32.109,38.521c-2.723,2.459 -0.844,5.916 2.613,4.357c22.128,-9.969 37.278,-33.328 44.098,-55.896c7.363,-24.373 1.003,-49.098 -7.454,-72.312c-7.307,-20.059 -18.21,-38.834 -32.438,-54.774c-12.807,-14.35 -28.193,-26.385 -43.997,-37.247c-7.968,-5.478 -16.051,-10.792 -24.148,-16.075c-8.54,-5.571 -17.146,-11.613 -26.409,-15.913c-0.73,-0.339 -1.933,0.701 -1.325,1.421Z" style="fill:#010101;fill-rule:nonzero;"/></g></svg>

<?xml version="1.0" encoding="UTF-8"?>
<svg width="441px" height="434px" viewBox="0 0 441 434" version="1.1" xmlns="http://www.w3.org/2000/svg" xmlns:xlink="http://www.w3.org/1999/xlink">
    <!-- Generator: Sketch 41 (35326) - http://www.bohemiancoding.com/sketch -->
    <title>garlic</title>
    <desc>Created with Sketch.</desc>
    <defs></defs>
    <g id="Page-1" stroke="none" stroke-width="1" fill="none" fill-rule="evenodd">
        <g id="Layer_1" transform="translate(-2298.000000, -3425.000000)" fill="#010101">
            <g id="Layer_1_3_">
                <g id="garlic" transform="translate(2298.000000, 3425.000000)">
                    <path d="M194.249,34.425 C198.311,33.288 202.386,32.306 206.604,32.002 C208.414,31.872 210.461,31.831 212.131,32.636 C211.336,32.253 212.235,33.227 212.694,33.777 C213.007,34.121 213.394,34.333 213.852,34.413 C212.873,34.266 213.707,34.504 214.091,34.678 C214.886,35.038 215.722,34.741 216.361,34.206 C216.789,33.849 218.069,31.747 217.406,32.799 C218.132,31.649 218.528,30.121 217.517,28.969 C216.129,27.387 212.752,26.988 210.821,26.933 C205.373,26.779 198.126,27.704 193.504,30.839 C191.828,31.974 191.442,35.21 194.249,34.425 L194.249,34.425 Z" id="Shape"></path>
                    <path d="M193.958,33.147 C189.447,63.053 197.666,93.022 200.478,122.686 C201.843,137.083 201.511,151.128 198.254,165.257 C195.345,177.878 190.272,189.829 184.805,201.521 C179.304,213.288 173.444,224.87 168.38,236.835 C163.322,248.783 160.38,261.544 158.489,274.345 C154.659,300.294 155.914,327.299 165.329,351.942 C171.925,369.204 184.617,383.845 198.421,395.792 C212.207,407.723 228.74,418.855 246.084,424.813 C250.242,426.242 255.197,419.89 252.554,416.335 C250.866,414.067 248.496,412.827 246.221,411.229 C242.785,408.817 236.933,414.921 239.691,418.236 C240.911,419.703 242.599,421.101 243.54,422.77 C246.251,420.391 248.962,418.012 251.673,415.634 C240.15,410.034 228.919,404.747 218.293,397.472 C207.421,390.028 197.558,381.094 189.109,370.985 C172.027,350.547 166.019,324.902 165.638,298.742 C165.439,285.023 167.029,271.315 169.972,257.929 C172.802,245.053 177.903,232.948 183.201,220.922 C193.419,197.736 204.743,174.78 207.273,149.215 C209.169,130.043 205.669,110.643 202.482,91.793 C199.149,72.076 196.546,52.622 196.744,32.585 C196.761,30.874 194.139,31.94 193.958,33.147 L193.958,33.147 Z" id="Shape"></path>
                    <path d="M217.621,38.264 C217.172,53.873 220.083,69.336 223.125,84.604 C226.023,99.165 229.467,113.777 233.849,127.966 C241.312,152.133 257.328,172.275 273.428,191.272 C290.787,211.757 307.408,231.978 319.474,256.16 C332.435,282.139 339.973,310.723 339.043,339.858 C338.272,364.016 327.511,386.999 309.189,402.985 C302.367,408.938 294.698,413.977 286.668,418.139 C280.633,421.267 271.27,425.759 264.86,421.382 C260.234,418.222 252.578,427.074 257.811,430.687 C265.157,435.758 275.279,432.995 282.827,429.899 C292.692,425.853 301.685,419.854 310.086,413.35 C328.825,398.843 343.189,376.339 347.342,352.959 C352.238,325.39 346.336,295.831 336.524,270.016 C326.883,244.66 312.104,221.745 294.699,201.067 C276.716,179.705 256.829,159.525 244.746,133.998 C237.856,119.442 234.157,103.039 230.237,87.49 C226.07,70.96 223.361,54.105 219.019,37.646 C218.8,36.82 217.638,37.709 217.621,38.264 L217.621,38.264 Z" id="Shape"></path>
                    <path d="M184.08,59.137 C181.798,73.438 181.69,87.826 178.693,102.049 C175.71,116.214 170.083,129.417 162.85,141.907 C149.393,165.15 130.828,184.782 113.811,205.377 C97.547,225.06 83.652,246.152 74.556,270.111 C65.936,292.817 60.812,318.043 65.091,342.253 C67.471,355.716 73.236,368.178 82.348,378.404 C92.037,389.281 104.973,397.294 117.531,404.408 C131.016,412.051 144.935,419.848 160.052,423.681 C166.876,425.41 174.47,425.965 181.418,424.671 C184.314,424.132 187.147,423.348 189.977,422.532 C191.385,422.127 192.792,421.719 194.188,421.273 C196.371,420.575 195.892,421.42 193.939,420.519 C198.87,422.795 206.194,414.065 200.737,411.544 C197.615,410.103 193.681,411.553 190.591,412.449 C184.887,414.103 179.652,415.283 173.653,414.922 C159.335,414.059 146.287,406.656 133.9,400.083 C112.072,388.496 88.925,375.3 79.233,351.289 C69.987,328.385 74.14,301.788 81.214,278.913 C88.778,254.45 102.124,232.882 117.961,212.957 C135.722,190.613 155.983,169.872 169.979,144.781 C177.275,131.701 182.554,117.87 185.255,103.124 C187.873,88.835 189.067,72.965 186.619,58.619 C186.357,57.095 184.264,57.985 184.08,59.137 L184.08,59.137 Z" id="Shape"></path>
                    <path d="M157.669,138.275 C142.772,151.014 127.726,162.826 111.312,173.566 C95.274,184.06 78.71,193.747 63.09,204.872 C47.767,215.786 33.411,228.369 22.411,243.735 C10.432,260.471 3.39,280.058 0.81,300.409 C-3.135,331.522 8.5,360.251 31.931,380.935 C52.726,399.293 82.222,411.364 110.249,408.104 C115.703,407.469 119.83,397.401 112.421,397.965 C71.711,401.07 29.248,374.749 14.975,336.289 C7.374,315.81 10.196,292.281 17.583,272.125 C24.046,254.49 35.369,239.423 49.066,226.746 C66.064,211.013 85.983,198.907 105.128,186.043 C124.525,173.008 145.771,159.013 159.25,139.527 C160.128,138.262 158.744,137.356 157.669,138.275 L157.669,138.275 Z" id="Shape"></path>
                    <path d="M171.692,35.972 C173.844,41.483 176.9,46.577 178.992,52.136 C181.15,57.867 180.508,64.734 183.593,70.029 C184.475,71.544 186.315,70.526 186.974,69.341 C193.37,57.819 184.277,40.392 174.479,33.528 C173.203,32.634 171.181,34.663 171.692,35.972 L171.692,35.972 Z" id="Shape"></path>
                    <path d="M171.167,36.581 C174.548,37.792 177.704,38.477 180.797,40.434 C183.89,42.389 185.823,45.892 189.434,46.954 C190.604,47.298 192.168,46.014 192.313,44.878 C193.518,35.482 179.339,31.593 172.25,33.433 C171.286,33.68 169.537,35.997 171.167,36.581 L171.167,36.581 Z" id="Shape"></path>
                    <path d="M195.391,288.338 C195.133,294.978 194.423,301.395 194.67,308.066 C194.928,315.01 196.014,322.014 197.191,328.853 C199.439,341.923 202.954,354.627 207.605,367.038 C217.195,392.628 234.423,413.963 255.928,430.534 C259.751,433.481 267.337,425.844 263.646,422.256 C261.906,420.565 260.619,419.536 258.255,418.965 C254.734,418.112 251.519,422.175 252.246,425.366 C252.694,427.334 253.634,428.385 255.025,429.817 C257.597,427.057 260.171,424.297 262.743,421.538 C241.161,407.309 226.134,385.763 215.066,362.784 C209.52,351.269 205.647,338.773 202.939,326.309 C201.514,319.751 200.53,313.102 199.737,306.441 C198.998,300.231 197.573,293.975 197.28,287.733 C197.223,286.48 195.427,287.408 195.391,288.338 L195.391,288.338 Z" id="Shape"></path>
                    <path d="M126.327,297.358 C125.924,310.342 125.892,323.002 129.054,335.686 C132.229,348.428 137.699,360.526 144.702,371.605 C150.784,381.225 158.797,389.462 167.423,396.811 C176.216,404.302 185.922,411.739 195.895,417.579 C198.189,414.551 200.484,411.52 202.779,408.493 C201.204,407.922 199.674,407.735 198.03,407.442 C195.163,406.93 191.717,410.151 192.729,413.091 C193.376,414.971 194.271,416.408 195.895,417.576 C200.359,420.789 207.626,412.289 202.779,408.49 C194.218,401.781 184.673,396.272 175.988,389.679 C167.635,383.338 160.048,375.988 153.581,367.729 C137.761,347.523 129.373,322.244 128.347,296.709 C128.292,295.384 126.358,296.357 126.327,297.358 L126.327,297.358 Z" id="Shape"></path>
                    <path d="M118.294,365.629 C125.201,382.751 138.276,394.951 153.654,404.746 C160.595,409.166 168.151,412.723 175.725,415.904 C180.632,417.967 194.016,423.675 193.623,413.132 C193.582,412.019 192.952,410.781 191.898,410.296 C186.819,407.949 181.279,406.477 176.095,404.328 C169.289,401.508 162.685,398.214 156.217,394.694 C142.869,387.434 128.356,377.753 120.376,364.44 C119.714,363.333 117.854,364.54 118.294,365.629 L118.294,365.629 Z" id="Shape"></path>
                    <path d="M281.574,323.47 C286.172,336.048 284.89,351.754 283.533,364.813 C282.786,371.997 281.797,379.3 279.396,386.148 C278.495,388.717 277.366,391.254 275.794,393.484 C274.487,395.338 272.312,396.02 270.803,398.128 C268.764,400.976 269.558,404.446 273.366,404.561 C279.838,404.754 284.508,395.449 286.407,390.252 C289.145,382.765 290.002,374.745 290.377,366.831 C291.056,352.547 289.384,335.682 283.099,322.602 C282.682,321.735 281.287,322.682 281.574,323.47 L281.574,323.47 Z" id="Shape"></path>
                    <path d="M313.159,349.413 C314.36,361.36 309.482,375.684 299.617,383.03 C293.427,387.639 301.349,394.479 306.045,388.128 C303.711,388.902 301.377,389.679 299.045,390.454 C301.187,392.101 304.781,389.837 306.045,388.128 C314.911,376.13 319.232,363.186 315.459,348.397 C315.134,347.122 313.058,348.398 313.159,349.413 L313.159,349.413 Z" id="Shape"></path>
                    <path d="M42.554,335.48 C44.844,343.809 46.952,351.411 51.501,358.874 C55.696,365.76 60.735,371.786 66.876,377.02 C79.95,388.168 95.292,396.616 109.822,405.672 C111.357,402.428 112.891,399.185 114.426,395.942 C112.094,396.4 110.322,397.06 108.304,398.339 C106.853,399.259 104.841,401.837 106.498,403.524 C107.858,404.909 109.061,405.642 110.962,406.068 C115.568,407.101 121.934,399.561 116.847,396.397 C89.602,379.452 58.642,365.311 44.116,334.589 C43.686,333.677 42.333,334.676 42.554,335.48 L42.554,335.48 Z" id="Shape"></path>
                    <path d="M370.494,298.514 C372.14,304.565 370.545,311.643 369.549,317.697 C368.565,323.683 366.894,329.551 365.207,335.371 C363.086,342.684 360.637,349.681 357.271,356.534 C353.782,363.639 349.618,370.648 344.042,376.331 C341.761,378.655 339.315,380.644 336.466,382.218 C333.471,383.87 330.233,383.54 327.095,384.581 C324.316,385.506 319.699,391.247 324.089,393.321 C331.568,396.852 341.839,389.991 347.303,385.366 C354.74,379.071 360.111,370.309 364.48,361.721 C368.611,353.602 371.671,344.638 373.304,335.676 C374.476,329.234 375.862,322.898 376.251,316.342 C376.669,309.334 374.361,304.004 372.178,297.555 C371.837,296.551 370.255,297.639 370.494,298.514 L370.494,298.514 Z" id="Shape"></path>
                    <path d="M300.611,152.992 C322.663,164.221 346.168,172.398 367.82,184.414 C388.633,195.962 408.198,212.693 419.971,233.643 C429.912,251.333 432.785,271.373 428.075,291.097 C425.592,301.497 420.893,311.491 415.271,320.548 C412.279,325.368 408.968,330.065 405.542,334.584 C401.821,339.489 396.81,344.012 394.188,349.6 C393.084,351.954 395.404,353.031 397.315,352.112 C402.854,349.449 407.286,344.05 411.32,339.514 C415.516,334.794 419.365,329.917 422.838,324.636 C429.311,314.788 434.273,304.185 437.472,292.839 C443.224,272.44 440.873,250.666 431.448,231.766 C420.4,209.615 400.346,192.282 379.106,180.237 C355.117,166.635 327.824,160.313 302.062,151.08 C301.042,150.714 299.407,152.378 300.611,152.992 L300.611,152.992 Z" id="Shape"></path>
                    <path d="M247.885,121.411 C250.239,121.411 251.841,117.2 248.786,117.2 C246.433,117.201 244.832,121.411 247.885,121.411 L247.885,121.411 Z" id="Shape"></path>
                    <path d="M199.482,26.861 C200.714,23.168 201.546,19.398 202.934,15.737 C204.399,11.875 206.654,8.245 208.683,4.659 C207.311,5.647 205.939,6.638 204.567,7.627 C209.234,7.602 213.897,7.413 218.564,7.389 C223.462,7.364 228.668,8.258 233.448,7.085 C234.677,6.783 236.508,4.578 235.226,3.377 C232.194,0.538 227.644,0.436 223.659,0.276 C217.807,0.045 211.959,0.4 206.106,0.442 C204.297,0.456 202.808,1.96 201.99,3.411 C198.122,10.271 192.662,20.101 195.248,28.225 C196.018,30.649 199.049,28.16 199.482,26.861 L199.482,26.861 Z" id="Shape"></path>
                    <path d="M242.957,8.603 C224.859,23.662 224.203,48.96 228.116,70.439 C230.266,82.246 234.084,93.751 238.866,104.739 C241.057,109.773 243.608,114.623 246.477,119.303 C248.822,123.13 251.212,127.241 255.04,129.745 C256.535,130.724 258.732,128.482 258.199,126.972 C256.849,123.149 254.368,119.857 252.421,116.327 C250.095,112.11 248.017,107.76 246.003,103.388 C241.29,93.157 237.71,82.388 235.219,71.408 C230.669,51.346 229.031,25.74 243.857,9.315 C244.462,8.646 243.544,8.113 242.957,8.603 L242.957,8.603 Z" id="Shape"></path>
                    <path d="M265.596,135.684 C272.186,143.496 280.933,149.701 289.113,155.746 C297.192,161.717 305.395,167.517 313.43,173.55 C329.024,185.255 343.9,197.591 356.451,212.599 C370.673,229.601 380.519,249.504 387.194,270.556 C391.089,282.841 394.592,295.781 394.84,308.728 C395.07,320.798 391.866,332.744 386.765,343.602 C379.463,359.142 367.202,370.797 354.656,382.123 C351.933,384.582 353.812,388.039 357.269,386.48 C379.397,376.511 394.547,353.152 401.367,330.584 C408.73,306.211 402.37,281.486 393.913,258.272 C386.606,238.213 375.703,219.438 361.475,203.498 C348.668,189.148 333.282,177.113 317.478,166.251 C309.51,160.773 301.427,155.459 293.33,150.176 C284.79,144.605 276.184,138.563 266.921,134.263 C266.191,133.924 264.988,134.964 265.596,135.684 L265.596,135.684 Z" id="Shape"></path>
                </g>
            </g>
        </g>
    </g>
</svg>
